assets/svg/1F612.svg

<svg xmlns="http://www.w3.org/2000/svg" viewBox="0 0 64 64" enable-background="new 0 0 64 64"><path fill="#fbb041" d="m63.839 31.999c0 17.676-14.287 32-31.92 32-17.63 0-31.919-14.325-31.919-32 0-17.673 14.289-31.999 31.919-31.999 17.633 0 31.92 14.326 31.92 31.999"/><g opacity=".987"><path fill="#e79d3c" d="m15.191 41.25c-5.658-12.165-5.91-25.26-.797-36.09-8.665 5.719-14.394 15.548-14.394 26.73 0 17.675 14.289 32 31.919 32 .315 0 .623-.04.935-.048-7.317-6.173-13.484-13.605-17.663-22.597"/></g><g fill="#633d19"><path d="m23.22 15.486c-5.525 1.13-11.205 2.763-14.523 7.693-1.236 1.835 1.524 3.871 2.76 2.035 2.809-4.172 7.668-5.389 12.323-6.337 2.159-.439 1.612-3.835-.56-3.391"/><path d="m43.489 13.769c5.525 1.128 11.206 2.76 14.522 7.693 1.236 1.834-1.524 3.872-2.76 2.036-2.809-4.173-7.668-5.387-12.322-6.337-2.158-.443-1.613-3.835.56-3.392"/><path d="m41.32 51.583c-.224 0-4.325-1.577-8.464-1.577-3.698 0-7.428 1.577-8.465 1.577-.899 0-1.234-1.044-.689-1.668 4.951-5.731 13.354-5.731 18.309 0 .541.624.205 1.668-.691 1.668"/></g><g fill="#fff"><path d="m35.25 29.406c.485 5.271 4.857 9.414 10.243 9.414 5.387 0 9.758-4.143 10.243-9.414h-20.486"/><path d="m9.02 29.406c.487 5.271 4.859 9.414 10.245 9.414s9.758-4.143 10.245-9.414h-20.49"/></g><g fill="#25333a"><path d="m18.1 29.378c.272 2.937 2.706 5.24 5.704 5.24 2.999 0 5.431-2.304 5.703-5.24h-11.407"/><path d="m44.33 29.378c.272 2.937 2.705 5.24 5.703 5.24 2.999 0 5.431-2.304 5.703-5.24h-11.406"/></g></svg>

<?xml version="1.0" encoding="UTF-8" standalone="no"?>
<!-- Generator: Adobe Illustrator 16.0.0, SVG Export Plug-In . SVG Version: 6.00 Build 0)  -->

<svg
   xmlns:dc="http://purl.org/dc/elements/1.1/"
   xmlns:cc="http://creativecommons.org/ns#"
   xmlns:rdf="http://www.w3.org/1999/02/22-rdf-syntax-ns#"
   xmlns:svg="http://www.w3.org/2000/svg"
   xmlns="http://www.w3.org/2000/svg"
   xmlns:sodipodi="http://sodipodi.sourceforge.net/DTD/sodipodi-0.dtd"
   xmlns:inkscape="http://www.inkscape.org/namespaces/inkscape"
   version="1.1"
   id="Layer_1"
   x="0px"
   y="0px"
   width="64px"
   height="64px"
   viewBox="0 0 64 64"
   enable-background="new 0 0 64 64"
   xml:space="preserve"
   inkscape:version="0.48.5 r10040"
   sodipodi:docname="1F612.svg"
   inkscape:export-filename="D:\TESTINGEMOJI\SVGTEST\1F612.png"
   inkscape:export-xdpi="90"
   inkscape:export-ydpi="90"><metadata
   id="metadata4452"><rdf:RDF><cc:Work
       rdf:about=""><dc:format>image/svg+xml</dc:format><dc:type
         rdf:resource="http://purl.org/dc/dcmitype/StillImage" /><dc:title></dc:title></cc:Work></rdf:RDF></metadata><defs
   id="defs4450" /><sodipodi:namedview
   pagecolor="#ffffff"
   bordercolor="#666666"
   borderopacity="1"
   objecttolerance="10"
   gridtolerance="10"
   guidetolerance="10"
   inkscape:pageopacity="0"
   inkscape:pageshadow="2"
   inkscape:window-width="640"
   inkscape:window-height="480"
   id="namedview4448"
   showgrid="false"
   inkscape:zoom="3.6875"
   inkscape:cx="32"
   inkscape:cy="32"
   inkscape:window-x="828"
   inkscape:window-y="262"
   inkscape:window-maximized="0"
   inkscape:current-layer="Layer_1" />
<g
   id="g4412">
	<g
   id="g4414">
		<g
   id="g4416">
			<path
   fill="#FBB041"
   d="M63.839,31.999C63.839,49.675,49.552,64,31.919,64C14.289,64,0,49.675,0,31.999     C0,14.326,14.289,0,31.919,0C49.552,0,63.839,14.326,63.839,31.999z"
   id="path4418" />
		</g>
	</g>
	<g
   opacity="0.9866"
   id="g4420">
		<g
   id="g4422">
			<g
   id="g4424">
				<path
   fill="#E79D3C"
   d="M15.191,41.251c-5.658-12.165-5.91-25.259-0.797-36.085C5.729,10.885,0,20.714,0,31.896      c0,17.675,14.289,32,31.919,32c0.315,0,0.623-0.04,0.935-0.048C25.537,57.675,19.37,50.243,15.191,41.251z"
   id="path4426" />
			</g>
		</g>
	</g>
	<path
   fill="#633D19"
   d="M23.224,15.486c-5.525,1.13-11.205,2.763-14.523,7.693c-1.236,1.835,1.524,3.871,2.76,2.035   c2.809-4.172,7.668-5.389,12.323-6.337C25.943,18.438,25.396,15.042,23.224,15.486z"
   id="path4428" />
	<path
   fill="#633D19"
   d="M43.489,13.769c5.525,1.128,11.206,2.76,14.522,7.693c1.236,1.834-1.524,3.872-2.76,2.036   c-2.809-4.173-7.668-5.387-12.322-6.337C40.771,16.718,41.316,13.326,43.489,13.769z"
   id="path4430" />
	<g
   id="g4432">
		<g
   id="g4434">
			<path
   fill="#633D19"
   d="M41.32,51.583c-0.224,0-4.325-1.577-8.464-1.577c-3.698,0-7.428,1.577-8.465,1.577     c-0.899,0-1.234-1.044-0.689-1.668c4.951-5.731,13.354-5.731,18.309,0C42.552,50.539,42.216,51.583,41.32,51.583z"
   id="path4436" />
		</g>
	</g>
	<g
   id="g4438">
		<path
   fill="#FFFFFF"
   d="M35.253,29.406c0.485,5.271,4.857,9.414,10.243,9.414c5.387,0,9.758-4.143,10.243-9.414H35.253z"
   id="path4440" />
		<path
   fill="#FFFFFF"
   d="M9.015,29.406c0.487,5.271,4.859,9.414,10.245,9.414s9.758-4.143,10.245-9.414H9.015z"
   id="path4442" />
		<path
   fill="#25333A"
   d="M18.098,29.378c0.272,2.937,2.706,5.24,5.704,5.24c2.999,0,5.431-2.304,5.703-5.24H18.098z"
   id="path4444" />
		<path
   fill="#25333A"
   d="M44.333,29.378c0.272,2.937,2.705,5.24,5.703,5.24c2.999,0,5.431-2.304,5.703-5.24H44.333z"
   id="path4446" />
	</g>
</g>
</svg>
